!!!OTL-incipit: ES SOLL SICH JA KEINER MIT DER LIEBE ABGEBEN
!!!ARE: Europa, Mitteleuropa, Deutschland, Thueringen
!!!SCT: Z0310A
!!!YEM: Copyright 1995, estate of Helmut Schaffrath.
**kern	**text
*ICvox	*
*M3/4	*
*k[f#]	*
*G:	*
!LO:TX:a:t=Thüringiſch.	!
{4d	Es
=1	=1
4g	ſoll
4g	ſich
4a	ja
=2	=2
4b	kei-
4b	-ner
8dd	mit
8cc	der
=3	=3
4b	Lie-
4b	-be
4a	ab-
=4	=4
4g	-ge-
4g}	-ben,
{4d	Sie
=5	=5
4g	brächt
4g	ja
4a	ſo
=6	=6
4b	man-
4b	-che
8dd	ſchö-
8cc	-ne
=7	=7
4b	Ker-
4b	-le
4a	um's
=8	=8
4g	Le-
4g}	-ben.
=|:	=|:
{4dd	Heut
=9	=9
4gg	hat
8ggL	mir
8ff#J	.
8eeL	mein
8ddJ	.
=10	=10
8cc#L	Trut-
8bJ	.
4a	-ſchel
4gg	die
=11	=11
8ff#L	Lie-
8eeJ	.
4dd	-be
4cc#	ver-
=12	=12
2dd}	-ſat,
{4ccn	ich
=13	=13
4b/	hab
4b/	ſie
4a	ver-
=14	=14
2g}	-klat,
{8ddL	ich
8ccJ	.
=15	=15
4b	hab
4b	ſie
4a	ver-
=16	=16
2g}	-klat.
==	==
!!!AGN: Lyrisches Lied, Romanze, verlassene Liebe, Tod
!!!ONB: ESAC (Essen Associative Code) Database: ZUCCAL
!!!AMT: simple triple
!!!AIN: vox
!!!EED: Helmut Schaffrath
!!!EEV: 1.0
!!!GTL: IV. Lyrische Lieder.
!!!URL-scan: https://www.digitale-sammlungen.de/de/view/bsb11160571?page=559
!!!ENC: Anna Maria Matuszewska
!!!EEV: 2025/01/31
*-	*-
